apps/static/images/Startup.svg

<svg width="50" height="50" viewBox="0 0 50 50" fill="none" xmlns="http://www.w3.org/2000/svg">
<g clip-path="url(#clip0)">
<path d="M31.2499 29.6899H20.3124V39.8462H31.2499V29.6899Z" fill="#FFC107"/>
<path d="M25.7812 33.596C32.2533 33.596 37.4999 28.3493 37.4999 21.8772C37.4999 15.4051 32.2533 10.1584 25.7812 10.1584C19.3091 10.1584 14.0624 15.4051 14.0624 21.8772C14.0624 28.3493 19.3091 33.596 25.7812 33.596Z" fill="#FFC107"/>
<path d="M27.7343 25.7837V36.7212M23.8281 25.7837V36.7212V25.7837Z" stroke="#E9EDED"/>
<path d="M29.6874 37.5024H21.8749V45.3149H29.6874V37.5024Z" fill="#263238"/>
<path d="M25.7812 10.1587C28.8892 10.1587 31.8699 11.3934 34.0676 13.5911C36.2653 15.7888 37.4999 18.7694 37.4999 21.8774C37.4984 24.0088 36.9157 26.0994 35.8144 27.9243C34.7131 29.7491 33.135 31.2389 31.2499 32.2336V39.8462H29.6874V32.2336C31.5725 31.2389 33.1506 29.7491 34.2519 27.9243C35.3532 26.0994 35.9359 24.0088 35.9374 21.8774C35.9341 18.8914 34.7909 16.0192 32.7415 13.8475C30.692 11.6758 27.8908 10.3684 24.9099 10.1923C25.1998 10.1703 25.4904 10.1591 25.7812 10.1587Z" fill="#FF9800"/>
<path d="M32.0312 35.9399H19.5312V43.7524H32.0312V35.9399Z" fill="#F2F2F2"/>
<path d="M32.0312 36.7212H19.5312C19.0997 36.7212 18.7499 37.071 18.7499 37.5024C18.7499 37.9339 19.0997 38.2837 19.5312 38.2837H32.0312C32.4627 38.2837 32.8124 37.9339 32.8124 37.5024C32.8124 37.071 32.4627 36.7212 32.0312 36.7212Z" fill="#263238"/>
<path d="M32.0312 39.0649H19.5312C19.0997 39.0649 18.7499 39.4147 18.7499 39.8462C18.7499 40.2777 19.0997 40.6274 19.5312 40.6274H32.0312C32.4627 40.6274 32.8124 40.2777 32.8124 39.8462C32.8124 39.4147 32.4627 39.0649 32.0312 39.0649Z" fill="#263238"/>
<path d="M32.0312 41.4087H19.5312C19.0997 41.4087 18.7499 41.7585 18.7499 42.1899C18.7499 42.6214 19.0997 42.9712 19.5312 42.9712H32.0312C32.4627 42.9712 32.8124 42.6214 32.8124 42.1899C32.8124 41.7585 32.4627 41.4087 32.0312 41.4087Z" fill="#263238"/>
<path d="M29.6874 25.3931H21.8749" stroke="#E9EDED"/>
<path d="M16.0156 21.8774C16.0156 20.595 16.2682 19.3251 16.7589 18.1403C17.2497 16.9555 17.969 15.8789 18.8758 14.9721C19.7827 14.0653 20.8592 13.346 22.044 12.8552C23.2289 12.3644 24.4987 12.1118 25.7812 12.1118" stroke="#FFEB3B"/>
<path d="M35.8941 29.5551C37.588 32.3118 38.15 34.1502 37.4567 34.6671C36.7634 35.184 34.8715 34.3372 32.1959 32.3124C29.5203 30.2875 26.2795 27.25 23.1843 23.8661C20.0891 20.4821 17.3921 17.0279 15.685 14.2612C13.9778 11.4944 13.3999 9.64094 14.0778 9.10728C14.7558 8.57361 16.6343 9.40335 19.3014 11.4145" stroke="#263238" stroke-width="1.149"/>
<path d="M13.8082 18.7713C11.8005 19.5949 10.9648 20.6408 11.4594 21.7111C11.9539 22.7813 13.7443 23.8014 16.4915 24.5784C19.2388 25.3553 22.7521 25.8351 26.3662 25.9269C29.9803 26.0187 33.4443 25.7161 36.1022 25.0764C38.7602 24.4367 40.4276 23.5043 40.7886 22.4558C41.1497 21.4074 40.1794 20.3156 38.0614 19.3872" stroke="#263238"/>
<path d="M10.5577 40.2422C10.9892 40.2422 11.339 39.8924 11.339 39.4609C11.339 39.0295 10.9892 38.6797 10.5577 38.6797C10.1263 38.6797 9.77649 39.0295 9.77649 39.4609C9.77649 39.8924 10.1263 40.2422 10.5577 40.2422Z" stroke="#F57C00" stroke-linecap="round" stroke-linejoin="round"/>
<path d="M40.2343 30.8616C40.6658 30.8616 41.0156 30.5118 41.0156 30.0804C41.0156 29.6489 40.6658 29.2991 40.2343 29.2991C39.8028 29.2991 39.4531 29.6489 39.4531 30.0804C39.4531 30.5118 39.8028 30.8616 40.2343 30.8616Z" stroke="#F57C00" stroke-linecap="round" stroke-linejoin="round"/>
<path d="M29.3077 7.42969C29.7392 7.42969 30.089 7.07991 30.089 6.64844C30.089 6.21697 29.7392 5.86719 29.3077 5.86719C28.8763 5.86719 28.5265 6.21697 28.5265 6.64844C28.5265 7.07991 28.8763 7.42969 29.3077 7.42969Z" stroke="#F57C00" stroke-linecap="round" stroke-linejoin="round"/>
<path d="M17.5836 5.86182H19.1461M5.86486 31.6431L5.86487 30.0806L5.86486 31.6431ZM5.08362 30.8618H6.64611H5.08362ZM38.6774 39.4556L38.6774 37.8931L38.6774 39.4556ZM37.8961 38.6743H39.4586H37.8961ZM41.8024 16.7993L41.8024 15.2368L41.8024 16.7993ZM41.0211 16.0181H42.5836H41.0211ZM18.3649 6.64307L18.3649 5.08057L18.3649 6.64307Z" stroke="#03A9F4" stroke-linecap="round" stroke-linejoin="round"/>
<path d="M43.8131 24.6158L44.9179 25.7206M10.2193 11.6581L11.3242 10.5532L10.2193 11.6581ZM10.2193 10.5532L11.3242 11.6581L10.2193 10.5532ZM43.8131 25.7206L44.9179 24.6158L43.8131 25.7206Z" stroke="#F2F2F2" stroke-linecap="round" stroke-linejoin="round"/>
</g>
<defs>
<clipPath id="clip0">
<rect width="50" height="50" fill="white"/>
</clipPath>
</defs>
</svg>

<svg width="50" height="50" fill="none" xmlns="http://www.w3.org/2000/svg"><g clip-path="url(#clip0)"><path d="M31.25 29.69H20.312v10.156H31.25V29.69z" fill="#FFC107"/><path d="M25.781 33.596c6.472 0 11.719-5.247 11.719-11.719 0-6.472-5.247-11.719-11.719-11.719-6.472 0-11.719 5.247-11.719 11.72 0 6.471 5.247 11.718 11.72 11.718z" fill="#FFC107"/><path d="M27.734 25.784V36.72m-3.906-10.937V36.72 25.784z" stroke="#E9EDED"/><path d="M29.687 37.502h-7.812v7.813h7.812v-7.813z" fill="#263238"/><path d="M25.781 10.159A11.719 11.719 0 0137.5 21.877a11.719 11.719 0 01-6.25 10.357v7.612h-1.563v-7.612a11.72 11.72 0 006.25-10.357A11.719 11.719 0 0024.91 10.192c.29-.022.58-.033.871-.033z" fill="#FF9800"/><path d="M32.031 35.94h-12.5v7.812h12.5V35.94z" fill="#F2F2F2"/><path d="M32.031 36.721h-12.5a.781.781 0 100 1.563h12.5a.781.781 0 000-1.563zm0 2.344h-12.5a.781.781 0 000 1.562h12.5a.781.781 0 100-1.562zm0 2.344h-12.5a.781.781 0 100 1.562h12.5a.781.781 0 000-1.562z" fill="#263238"/><path d="M29.687 25.393h-7.812" stroke="#E9EDED"/><path d="M16.016 21.877a9.767 9.767 0 019.765-9.765" stroke="#FFEB3B"/><path d="M35.894 29.555c1.694 2.757 2.256 4.595 1.563 5.112-.694.517-2.586-.33-5.261-2.355-2.676-2.024-5.916-5.062-9.012-8.446-3.095-3.384-5.792-6.838-7.499-9.605-1.707-2.767-2.285-4.62-1.607-5.154.678-.533 2.556.296 5.223 2.308" stroke="#263238" stroke-width="1.149"/><path d="M13.808 18.771c-2.008.824-2.843 1.87-2.349 2.94.495 1.07 2.285 2.09 5.032 2.867 2.748.777 6.261 1.257 9.875 1.349 3.614.092 7.078-.21 9.736-.85 2.658-.64 4.326-1.573 4.687-2.621.36-1.049-.61-2.14-2.728-3.069" stroke="#263238"/><path d="M10.558 40.242a.781.781 0 100-1.562.781.781 0 000 1.562zm29.676-9.38a.781.781 0 100-1.563.781.781 0 000 1.563zM29.308 7.43a.781.781 0 100-1.563.781.781 0 000 1.563z" stroke="#F57C00" stroke-linecap="round" stroke-linejoin="round"/><path d="M17.584 5.862h1.562M5.865 31.643v-1.562 1.562zm-.781-.781h1.562-1.562zm33.593 8.594v-1.563 1.563zm-.78-.782h1.562-1.563zM41.801 16.8v-1.562V16.8zm-.78-.78h1.562-1.563zM18.364 6.642V5.081v1.562z" stroke="#03A9F4" stroke-linecap="round" stroke-linejoin="round"/><path d="M43.813 24.616l1.105 1.105M10.219 11.658l1.105-1.105-1.105 1.105zm0-1.105l1.105 1.105-1.105-1.105zm33.594 15.168l1.105-1.105-1.105 1.105z" stroke="#F2F2F2" stroke-linecap="round" stroke-linejoin="round"/></g><defs><clipPath id="clip0"><path fill="#fff" d="M0 0h50v50H0z"/></clipPath></defs></svg>
